COLOR/status 16/16/display.svg

<svg height="16" width="16" xmlns="http://www.w3.org/2000/svg"><path d="m.881356 1.830509h14.169492v10.305085h-14.169492z" fill="#1a7fd4"/><path d="m.88085938 12.134766h14.16992162v-10.3046879z" fill="#fff" opacity=".2"/><g fill="#666"><g><path d="m3.994 1c-1.258.015-2.179-.03-2.931.385a1.88 1.88 0 0 0 -.838.998c-.165.439-.225.96-.225 1.617v6c0 .658.06 1.179.225 1.617.164.439.461.79.838.998.752.416 1.673.37 2.931.385h8.012c1.258-.014 2.179.03 2.932-.385a1.88 1.88 0 0 0 .838-.998c.164-.438.224-.96.224-1.617v-6c0-.658-.06-1.178-.225-1.617a1.88 1.88 0 0 0 -.837-.998c-.753-.416-1.674-.37-2.932-.385h-8.008zm.006 1h8c1.259.015 2.087.06 2.453.262.184.101.29.213.387.472.097.26.16.674.16 1.266v6c0 .592-.063 1.006-.16 1.266-.098.26-.203.371-.387.472-.366.202-1.194.247-2.453.262h-8c-1.258-.015-2.09-.06-2.455-.262-.183-.1-.287-.212-.385-.472-.097-.26-.16-.674-.16-1.266v-6c0-.592.063-1.006.16-1.266.098-.26.202-.371.385-.472.365-.202 1.195-.247 2.455-.262z"/><path d="m6 12h4v1.5c0 1.5.5 1.5 1.5 1.5h.5v1h-8v-1h.5c1 0 1.5 0 1.5-1.5z"/></g><g><path d="m6 12h4v1.5c0 1.5.5 1.5 1.5 1.5h.5v1h-8v-1h.5c1 0 1.5 0 1.5-1.5z" fill="#666"/><path d="m3.9941406 1c-1.258.015-2.1796406-.03023438-2.9316406.3847656a1.88 1.88 0 0 0 -.83789062.9980469c-.165.439-.22460938.9601875-.22460938 1.6171875v.5c0-.657.05960938-1.1781875.22460938-1.6171875a1.88 1.88 0 0 1 .83789062-.9980469c.752-.415 1.6736406-.3697656 2.9316406-.3847656h.0039063 8.0078121c1.258.015 2.178641-.0312344 2.931641.3847656a1.88 1.88 0 0 1 .837891.9980469c.165.439.224609.9591875.224609 1.6171875v-.5c0-.658-.059609-1.1781875-.224609-1.6171875a1.88 1.88 0 0 0 -.837891-.9980469c-.753-.41599997-1.673641-.3697656-2.931641-.3847656h-8.0078121zm-2.9941406 9v.5c0 .592.0631563 1.005625.1601562 1.265625.098.26.2017657.372656.3847657.472656.365.202 1.1970781.246719 2.4550781.261719h8c1.259-.015 2.087125-.059719 2.453125-.261719.184-.101.288719-.212656.386719-.472656.097-.26.160156-.673625.160156-1.265625v-.5c0 .592-.063156 1.005625-.160156 1.265625-.098.26-.202719.371656-.386719.472656-.366.202-1.194125.246719-2.453125.261719h-8c-1.258-.015-2.0900781-.059719-2.4550781-.261719-.183-.1-.2867656-.212656-.3847657-.472656-.0969999-.26-.1601562-.673625-.1601562-1.265625z" fill="#fff" opacity=".3"/><path d="m4 15.5v.5h8v-.5z" fill="#000" opacity=".2"/></g></g></svg>

<?xml version="1.0" encoding="UTF-8" standalone="no"?>
<svg
   xmlns:dc="http://purl.org/dc/elements/1.1/"
   xmlns:cc="http://creativecommons.org/ns#"
   xmlns:rdf="http://www.w3.org/1999/02/22-rdf-syntax-ns#"
   xmlns:svg="http://www.w3.org/2000/svg"
   xmlns="http://www.w3.org/2000/svg"
   xmlns:sodipodi="http://sodipodi.sourceforge.net/DTD/sodipodi-0.dtd"
   xmlns:inkscape="http://www.inkscape.org/namespaces/inkscape"
   height="16"
   width="16"
   version="1.1"
   id="svg8"
   sodipodi:docname="display.svg"
   inkscape:version="0.92.4 (5da689c313, 2019-01-14)">
  <metadata
     id="metadata14">
    <rdf:RDF>
      <cc:Work
         rdf:about="">
        <dc:format>image/svg+xml</dc:format>
        <dc:type
           rdf:resource="http://purl.org/dc/dcmitype/StillImage" />
      </cc:Work>
    </rdf:RDF>
  </metadata>
  <defs
     id="defs12" />
  <sodipodi:namedview
     pagecolor="#ffffff"
     bordercolor="#666666"
     borderopacity="1"
     objecttolerance="10"
     gridtolerance="10"
     guidetolerance="10"
     inkscape:pageopacity="0"
     inkscape:pageshadow="2"
     inkscape:window-width="1920"
     inkscape:window-height="1016"
     id="namedview10"
     showgrid="false"
     inkscape:zoom="14.75"
     inkscape:cx="-4.9830508"
     inkscape:cy="8"
     inkscape:window-x="0"
     inkscape:window-y="27"
     inkscape:window-maximized="1"
     inkscape:current-layer="g848" />
  <rect
     style="opacity:1;fill:#1a7fd4;fill-opacity:1;stroke:none;stroke-width:1;stroke-linecap:round;stroke-linejoin:round;stroke-miterlimit:4;stroke-dasharray:none;stroke-opacity:0.4"
     id="rect821"
     width="14.169492"
     height="10.305085"
     x="0.88135594"
     y="1.8305085" />
  <path
     style="fill:#ffffff;stroke:none;stroke-width:1px;stroke-linecap:butt;stroke-linejoin:miter;stroke-opacity:1;fill-opacity:1;opacity:0.2"
     d="M 0.88085938 12.134766 L 15.050781 12.134766 L 15.050781 1.8300781 L 0.88085938 12.134766 z "
     id="path823" />
  <g
     fill="#808080"
     id="g6"
     style="fill:#666666;fill-opacity:1">
    <path
       d="m3.994 1c-1.258.015-2.179-.03-2.931.385a1.88 1.88 0 0 0 -.838.998c-.165.439-.225.96-.225 1.617v6c0 .658.06 1.179.225 1.617.164.439.461.79.838.998.752.416 1.673.37 2.931.385h8.012c1.258-.014 2.179.03 2.932-.385a1.88 1.88 0 0 0 .838-.998c.164-.438.224-.96.224-1.617v-6c0-.658-.06-1.178-.225-1.617a1.88 1.88 0 0 0 -.837-.998c-.753-.416-1.674-.37-2.932-.385h-8.008zm.006 1h8c1.259.015 2.087.06 2.453.262.184.101.29.213.387.472.097.26.16.674.16 1.266v6c0 .592-.063 1.006-.16 1.266-.098.26-.203.371-.387.472-.366.202-1.194.247-2.453.262h-8c-1.258-.015-2.09-.06-2.455-.262-.183-.1-.287-.212-.385-.472-.097-.26-.16-.674-.16-1.266v-6c0-.592.063-1.006.16-1.266.098-.26.202-.371.385-.472.365-.202 1.195-.247 2.455-.262z"
       id="path2"
       style="fill:#666666;fill-opacity:1" />
    <path
       d="m6 12h4v1.5c0 1.5.5 1.5 1.5 1.5h.5v1h-8v-1h.5c1 0 1.5 0 1.5-1.5z"
       id="path4"
       style="fill:#666666;fill-opacity:1" />
  </g>
  <g
     style="fill:#666666;fill-opacity:1"
     id="g848"
     fill="#808080">
    <path
       style="fill:#666666;fill-opacity:1"
       id="path846"
       d="m6 12h4v1.5c0 1.5.5 1.5 1.5 1.5h.5v1h-8v-1h.5c1 0 1.5 0 1.5-1.5z" />
    <path
       style="fill:#ffffff;fill-opacity:1;opacity:0.3"
       d="M 3.9941406 1 C 2.7361406 1.015 1.8145 0.96976562 1.0625 1.3847656 A 1.88 1.88 0 0 0 0.22460938 2.3828125 C 0.059609375 2.8218125 1.8503717e-17 3.343 0 4 L 0 4.5 C 1.8503717e-17 3.843 0.059609375 3.3218125 0.22460938 2.8828125 A 1.88 1.88 0 0 1 1.0625 1.8847656 C 1.8145 1.4697656 2.7361406 1.515 3.9941406 1.5 L 3.9980469 1.5 L 12.005859 1.5 C 13.263859 1.515 14.1845 1.4687656 14.9375 1.8847656 A 1.88 1.88 0 0 1 15.775391 2.8828125 C 15.940391 3.3218125 16 3.842 16 4.5 L 16 4 C 16 3.342 15.940391 2.8218125 15.775391 2.3828125 A 1.88 1.88 0 0 0 14.9375 1.3847656 C 14.1845 0.96876563 13.263859 1.015 12.005859 1 L 3.9980469 1 L 3.9941406 1 z M 1 10 L 1 10.5 C 1 11.092 1.0631563 11.505625 1.1601562 11.765625 C 1.2581562 12.025625 1.3619219 12.138281 1.5449219 12.238281 C 1.9099219 12.440281 2.742 12.485 4 12.5 L 12 12.5 C 13.259 12.485 14.087125 12.440281 14.453125 12.238281 C 14.637125 12.137281 14.741844 12.025625 14.839844 11.765625 C 14.936844 11.505625 15 11.092 15 10.5 L 15 10 C 15 10.592 14.936844 11.005625 14.839844 11.265625 C 14.741844 11.525625 14.637125 11.637281 14.453125 11.738281 C 14.087125 11.940281 13.259 11.985 12 12 L 4 12 C 2.742 11.985 1.9099219 11.940281 1.5449219 11.738281 C 1.3619219 11.638281 1.2581563 11.525625 1.1601562 11.265625 C 1.0631563 11.005625 1 10.592 1 10 z "
       id="path844" />
    <path
       style="fill:#000000;fill-opacity:1;opacity:0.2"
       d="M 4 15.5 L 4 16 L 12 16 L 12 15.5 L 4 15.5 z "
       id="path857" />
  </g>
  <g
     id="g854"
     style="fill:#666666;fill-opacity:1"
     transform="translate(0,0.5)" />
</svg>
